svgs/thin/dolly-empty.svg

<svg xmlns="http://www.w3.org/2000/svg" viewBox="0 0 576 512"><!--! Font Awesome Pro 6.0.0-alpha3 by @fontawesome - https://fontawesome.com License - https://fontawesome.com/license (Commercial License) --><path d="M565.6 336.4l-254.5 79.54c-11.1-19.01-31.49-31.92-55.08-31.92c-3.365 0-6.597 .4861-9.822 .9861L138.1 39.31C130.8 15.78 109.3 0 84.66 0H8C3.594 0 0 3.594 0 8S3.594 16 8 16h76.66c17.59 0 32.94 11.28 38.19 28.06l107.9 345.1C207.1 399 192 421.6 192 448c0 35.35 28.65 64 64 64s64-28.65 64-64c0-6.037-1.104-11.76-2.666-17.3l253-79.08c4.219-1.312 6.594-5.781 5.25-10C574.3 337.4 569.9 335.1 565.6 336.4zM256 496c-26.47 0-48-21.53-48-48s21.53-48 48-48s48 21.53 48 48S282.5 496 256 496z"/></svg>

<svg xmlns="http://www.w3.org/2000/svg" viewBox="0 0 576 512"><!-- Font Awesome Pro 6.0.0-alpha2 by @fontawesome - https://fontawesome.com License - https://fontawesome.com/license (Commercial License) --><path d="M565.625 336.375L311.08 415.92C299.982 396.914 279.596 384 256 384C252.635 384 249.4 384.49 246.176 384.99L138.094 39.312C130.781 15.781 109.281 0 84.656 0H8C3.594 0 0 3.594 0 8S3.594 16 8 16H84.656C102.25 16 117.594 27.281 122.844 44.062L230.76 389.207C207.975 399.004 192 421.625 192 448C192 483.346 220.654 512 256 512S320 483.346 320 448C320 441.963 318.896 436.238 317.334 430.701L570.375 351.625C574.594 350.312 576.969 345.844 575.625 341.625C574.312 337.406 569.875 335.062 565.625 336.375ZM256 496C229.533 496 208 474.467 208 448S229.533 400 256 400S304 421.533 304 448S282.467 496 256 496Z"/></svg>
